X: 27889
T: Mountain Dew
R: reel
M: 4/4
K: Edorian
|:B2EB GBEB|BEGB ADFA|B2EB GBEg|gedB ADFA:|
B2eg fded|B2eg fddA|B2eg fded|B/c/dAG FDDA|
B2eg fded|B2 eg fddc|dfaf gfed|B2 AB BEEB||

